X: 1336
T: Charlie Kyle's No 16 Polka
B: australian traditional tunes wiki
M:2/4
L:1/16
R: Polka
Q: 1/4=100
K:G
V:1 
|:"G"D3G B2B2|"C"E3G c2c2|"G"D3G B2B2|"D7"AGFG A2A2|
"G"D3G B2B2|"C"E3G c2c2|"G"BcdB "D7"A3B|"G"A2G2G4:|
|:"D"f2f2 gfef|"G"g2g2 agfg|"D"a2a2 bag2|"A7"edcB A4|
"D"f2f2 gfef|"G"g2g2 agfg|"A7"a2a2 agfe|"D"d2d2"G"d4:|
% abcbook-tune_id 6342d53acd9e2b161f2137fe


% abcbook-boost 0
% abcbook-tablature 
% abcbook-transpose 
% abcbook-lastupdated 1665324359936
% abcbook-soundfonts 
% abcbook-repeats 1
% NFF Book 2007

